!!!OTL: BEI DER STILLEN MONDESHELLE
!!!ARE: Europa, Mitteleuropa, Deutschland
!!!SCT: B0193
!!!YEM: Copyright 1995, estate of Helmut Schaffrath.
**kern
*ICvox
*Ivox
*M6/8
*k[b-e-a-]
*E-:
=1
{4e-
8g
4b-
8g
=2
4ee-
8cc
4b-
8g}
=3
{4ee-
8cc
4b-
8g
=4
4f
8a-
4.g}
=5
{4f
8a-
4g
8b-
=6
4an
8cc
4b-
8dd}
=7
{4cc
8ee-
4dd
8ff
=8
4f
8an
4.b-}
=9
{4ff
8dd
4ee-
8b-
=10
4ff
8dd
4ee-
8b-}
=11
{4a-
8f
4g
8d
=12
4b-
8g
4.f}
=13
{4e-
8g
4b-
8g
=14
4ee-
8cc
4b-
8g}
=15
{4a-
8b-
4g
8e-
=16
4f
8g
4.e-}
==
!!!AGN: Natur - Lied, Wasser
!!!ONB: ESAC (Essen Associative Code) Database: BOEHME
!!!AMT: compound duple
!!!AIN: vox
!!!EED: Helmut Schaffrath
!!!EEV: 1.0
*-
